Numix-GalliumOS/64/mimetypes/application-certificate.svg

<svg xmlns="http://www.w3.org/2000/svg" xmlns:xlink="http://www.w3.org/1999/xlink" width="64px" height="64px" viewBox="0 0 64 64" version="1.1">
<g id="surface1">
<path style=" stroke:none;fill-rule:nonzero;fill:rgb(80.784314%,41.568627%,12.54902%);fill-opacity:1;" d="M 10.671875 0 C 9.296875 0 8 1.355469 8 2.789062 L 8 61.210938 C 8 62.566406 9.375 64 10.671875 64 L 53.328125 64 C 54.625 64 56 62.566406 56 61.210938 L 56 18 L 38 0 Z M 10.671875 0 "/>
<path style=" stroke:none;fill-rule:nonzero;fill:rgb(0%,0%,0%);fill-opacity:0.196078;" d="M 42 18 L 56 32 L 56 18 Z M 42 18 "/>
<path style=" stroke:none;fill-rule:nonzero;fill:rgb(100%,100%,100%);fill-opacity:0.392157;" d="M 38 0 L 55.984375 18 L 40.757812 18 C 39.410156 18 38 16.574219 38 15.226562 Z M 38 0 "/>
<path style=" stroke:none;fill-rule:nonzero;fill:rgb(100%,100%,100%);fill-opacity:1;" d="M 32 20 C 30.914062 20 30 20.625 29.585938 21.503906 C 28.757812 20.933594 27.609375 20.832031 26.664062 21.351562 C 25.734375 21.855469 25.242188 22.84375 25.335938 23.796875 C 24.328125 23.707031 23.289062 24.179688 22.75 25.066406 C 22.210938 25.953125 22.320312 27.046875 22.914062 27.828125 C 21.984375 28.222656 21.335938 29.09375 21.335938 30.121094 C 21.335938 31.152344 21.984375 32.015625 22.914062 32.414062 C 22.320312 33.199219 22.210938 34.285156 22.75 35.179688 C 23.289062 36.066406 24.328125 36.53125 25.335938 36.441406 C 25.242188 37.402344 25.734375 38.382812 26.664062 38.894531 C 27.085938 39.125 27.546875 39.214844 28 39.214844 L 28 50 L 32 46.203125 L 36 50 L 36 39.214844 C 36.453125 39.214844 36.914062 39.125 37.335938 38.894531 C 38.265625 38.382812 38.757812 37.402344 38.664062 36.441406 C 39.671875 36.53125 40.710938 36.066406 41.25 35.179688 C 41.789062 34.285156 41.679688 33.199219 41.085938 32.414062 C 42.015625 32.015625 42.664062 31.152344 42.664062 30.121094 C 42.664062 29.09375 42.015625 28.222656 41.085938 27.828125 C 41.679688 27.046875 41.789062 25.953125 41.25 25.066406 C 40.710938 24.179688 39.671875 23.707031 38.664062 23.796875 C 38.757812 22.84375 38.265625 21.855469 37.335938 21.351562 C 36.390625 20.832031 35.242188 20.933594 34.414062 21.503906 C 34 20.625 33.085938 20 32 20 Z M 32 23.753906 C 35.679688 23.753906 38.664062 26.589844 38.664062 30.082031 C 38.664062 33.574219 35.679688 36.402344 32 36.402344 C 28.320312 36.402344 25.335938 33.574219 25.335938 30.082031 C 25.335938 26.589844 28.320312 23.753906 32 23.753906 Z M 32 25.023438 C 29.054688 25.023438 26.664062 27.285156 26.664062 30.082031 C 26.664062 32.871094 29.054688 35.140625 32 35.140625 C 34.945312 35.140625 37.335938 32.871094 37.335938 30.082031 C 37.335938 27.285156 34.945312 25.023438 32 25.023438 Z M 32 25.023438 "/>
</g>
</svg>

<svg xmlns="http://www.w3.org/2000/svg" viewBox="0 0 64 64">
 <g>
  <path d="m 10.672 0 c -1.375 0 -2.672 1.355 -2.672 2.789 l 0 58.42 c 0 1.355 1.375 2.789 2.672 2.789 l 42.656 0 c 1.297 0 2.672 -1.434 2.672 -2.789 l 0 -43.21 l -18 -18 m -27.328 0" style="fill:#ce6920;fill-opacity:1;stroke:none;fill-rule:nonzero"/>
  <path d="m 42 18 l 14 14 l 0 -14 m -14 0" style="fill:#000;fill-opacity:0.196;stroke:none;fill-rule:nonzero"/>
  <path d="m 38 0 l 17.984 18 l -15.227 0 c -1.348 0 -2.758 -1.426 -2.758 -2.773 m 0 -15.227" style="fill:#fff;fill-opacity:0.392;stroke:none;fill-rule:nonzero"/>
  <path d="m 32 20 c -1.086 0 -2 0.625 -2.414 1.504 c -0.828 -0.57 -1.977 -0.672 -2.922 -0.152 c -0.93 0.504 -1.422 1.492 -1.328 2.445 c -1.01 -0.09 -2.047 0.383 -2.586 1.27 c -0.539 0.887 -0.43 1.98 0.164 2.762 c -0.93 0.395 -1.578 1.266 -1.578 2.293 c 0 1.031 0.648 1.895 1.578 2.293 c -0.594 0.785 -0.703 1.871 -0.164 2.766 c 0.539 0.887 1.578 1.352 2.586 1.262 c -0.094 0.961 0.398 1.941 1.328 2.453 c 0.422 0.23 0.883 0.32 1.336 0.32 l 0 10.785 l 4 -3.797 l 4 3.797 l 0 -10.785 c 0.453 0 0.914 -0.09 1.336 -0.32 c 0.93 -0.512 1.422 -1.492 1.328 -2.453 c 1.01 0.09 2.047 -0.375 2.586 -1.262 c 0.539 -0.895 0.43 -1.98 -0.164 -2.766 c 0.93 -0.398 1.578 -1.262 1.578 -2.293 c 0 -1.027 -0.648 -1.898 -1.578 -2.293 c 0.594 -0.781 0.703 -1.875 0.164 -2.762 c -0.539 -0.887 -1.578 -1.359 -2.586 -1.27 c 0.094 -0.953 -0.398 -1.941 -1.328 -2.445 c -0.945 -0.52 -2.094 -0.418 -2.922 0.152 c -0.414 -0.879 -1.328 -1.504 -2.414 -1.504 m 0 3.754 c 3.68 0 6.664 2.836 6.664 6.328 c 0 3.492 -2.984 6.32 -6.664 6.32 c -3.68 0 -6.664 -2.828 -6.664 -6.32 c 0 -3.492 2.984 -6.328 6.664 -6.328 m 0 1.27 c -2.945 0 -5.336 2.262 -5.336 5.059 c 0 2.789 2.391 5.059 5.336 5.059 c 2.945 0 5.336 -2.27 5.336 -5.059 c 0 -2.797 -2.391 -5.059 -5.336 -5.059 m 0 0" style="fill:#fff;fill-opacity:1;stroke:none;fill-rule:nonzero"/>
 </g>
</svg>
